src/assets/filled/Aave.svg

<?xml version="1.0" encoding="UTF-8"?>
<svg width="24" height="24" viewBox="0 0 24 24" xmlns="http://www.w3.org/2000/svg">
 <path d="m12 2c-5.52 0-10 4.48-10 10s4.48 10 10 10 10-4.48 10-10-4.48-10-10-10zm4.3 14.69c-0.1 0.04-0.2 0.06-0.3 0.06-0.29 0-0.56-0.17-0.69-0.45l-3.31-7.45-1.07 2.4h1.07c0.41 0 0.75 0.34 0.75 0.75s-0.34 0.75-0.75 0.75h-1.73l-1.58 3.55c-0.17 0.38-0.61999 0.55-0.98999 0.38-0.38-0.17-0.55-0.61-0.38-0.99l1.31-2.95h-0.63c-0.41 0-0.75-0.34-0.75-0.75s0.34-0.75 0.75-0.75h1.29l2.02-4.55c0.24-0.54 1.13-0.54 1.37 0l4 9c0.17 0.38 0 0.83-0.38 1z"/>
</svg>

<svg width="24" height="24" viewBox="0 0 24 24"  xmlns="http://www.w3.org/2000/svg">
<path d="M12 2C6.48 2 2 6.48 2 12C2 17.52 6.48 22 12 22C17.52 22 22 17.52 22 12C22 6.48 17.52 2 12 2ZM16.3 16.69C16.2 16.73 16.1 16.75 16 16.75C15.71 16.75 15.44 16.58 15.31 16.3L12 8.85L10.93 11.25H12C12.41 11.25 12.75 11.59 12.75 12C12.75 12.41 12.41 12.75 12 12.75H10.27L8.69 16.3C8.52 16.68 8.07001 16.85 7.70001 16.68C7.32001 16.51 7.15001 16.07 7.32001 15.69L8.63 12.74H8C7.59 12.74 7.25 12.4 7.25 11.99C7.25 11.58 7.59 11.24 8 11.24H9.28998L11.31 6.69C11.55 6.15 12.44 6.15 12.68 6.69L16.68 15.69C16.85 16.07 16.68 16.52 16.3 16.69Z" />
</svg>
